icon-themes/sifr_svg/cmd/sc_strikeout.svg

<svg viewBox="0 0 16 16" xmlns="http://www.w3.org/2000/svg"><path d="m8.5 2c-1.932997 0-3.5 1.5670034-3.5 3.5 0 .1713771.0269839.3352136.0507812.5h2.0410157c-.0558163-.1570654-.0917969-.3237875-.0917969-.5 0-.8284271.671573-1.5 1.5-1.5h3.5v-2zm-6.5 5v2h12v-2zm7.9082031 3c.055816.157065.0917969.323788.0917969.5 0 .828427-.671573 1.5-1.5 1.5h-3.5v2h3.5c1.932997 0 3.5-1.567003 3.5-3.5 0-.171377-.026981-.335214-.050781-.5z" fill="#555753"/></svg>

<?xml version="1.0" encoding="UTF-8" standalone="no"?>
<svg
   xmlns:dc="http://purl.org/dc/elements/1.1/"
   xmlns:cc="http://creativecommons.org/ns#"
   xmlns:rdf="http://www.w3.org/1999/02/22-rdf-syntax-ns#"
   xmlns:svg="http://www.w3.org/2000/svg"
   xmlns="http://www.w3.org/2000/svg"
   xmlns:sodipodi="http://sodipodi.sourceforge.net/DTD/sodipodi-0.dtd"
   xmlns:inkscape="http://www.inkscape.org/namespaces/inkscape"
   viewBox="0 0 16 16"
   version="1.1"
   id="svg4"
   sodipodi:docname="sc_strikeout.svg"
   inkscape:version="0.92.3 (2405546, 2018-03-11)">
  <metadata
     id="metadata10">
    <rdf:RDF>
      <cc:Work
         rdf:about="">
        <dc:format>image/svg+xml</dc:format>
        <dc:type
           rdf:resource="http://purl.org/dc/dcmitype/StillImage" />
      </cc:Work>
    </rdf:RDF>
  </metadata>
  <defs
     id="defs8" />
  <sodipodi:namedview
     pagecolor="#ffffff"
     bordercolor="#666666"
     borderopacity="1"
     objecttolerance="10"
     gridtolerance="10"
     guidetolerance="10"
     inkscape:pageopacity="0"
     inkscape:pageshadow="2"
     inkscape:window-width="2560"
     inkscape:window-height="1315"
     id="namedview6"
     showgrid="true"
     inkscape:zoom="41.7193"
     inkscape:cx="7.8114364"
     inkscape:cy="5.8070022"
     inkscape:window-x="0"
     inkscape:window-y="36"
     inkscape:window-maximized="1"
     inkscape:current-layer="svg4">
    <inkscape:grid
       type="xygrid"
       id="grid817" />
  </sodipodi:namedview>
  <path
     style="fill:#555753"
     d="M 8.5 2 C 6.567003 2 5 3.5670034 5 5.5 C 5 5.6713771 5.0269839 5.8352136 5.0507812 6 L 7.0917969 6 C 7.0359806 5.8429346 7 5.6762125 7 5.5 C 7 4.6715729 7.671573 4 8.5 4 L 12 4 L 12 2 L 8.5 2 z M 2 7 L 2 9 L 14 9 L 14 7 L 2 7 z M 9.9082031 10 C 9.9640191 10.157065 10 10.323788 10 10.5 C 10 11.328427 9.328427 12 8.5 12 L 5 12 L 5 14 L 8.5 14 C 10.432997 14 12 12.432997 12 10.5 C 12 10.328623 11.973019 10.164786 11.949219 10 L 9.9082031 10 z "
     id="path2" />
</svg>
